X:1
T:Title
%%score [ ( 1 2 ) ( 3 4 ) ]
L:1/8
Q:1/4=100
M:4/4
K:Eb
V:1 treble nm="Midi_20"
V:2 treble 
V:3 bass nm="Midi_20"
V:4 bass 
V:1
"^Faith (10 10. 10 10. 10 12.)""^With hearts renewed""^tr. David Thomas Morgan\n(1809-86)" B4 c2 c2 | %1
w: |
w: |
w: |
 B4 e4 | d2 c2 B2 A2 | G8 || G4 F2 E2 | B2 A2 G2"^Henry Smart\n(1813-1879)" B2 | (e2 d2) c4 | B8 || %8
w: |||||||
w: |||||||
w: |||||||
 E4 E2 E2 | F4 G4 | A2 _d2 c2 B2 | c8 || c4 !courtesy!=d2 e2 | B2 G2 A2 F2 | E4 F4 | G6 || G2 | %17
w: |||||||||
w: |||||||||
w: |||||||||
 B4 G4 | B4 G4 | B2 B2 c2 (de) | d4 || e4 | B2 c2 A2 B2 | G2 B2 E2 A2 | G4 F4 |"^2" E8 |] %26
w: ||* * Spi- rit's *|||||||
w: ||* * Per- sons *|||||||
w: ||* and Spi- rit *|||||||
V:2
 E4 E2 E2 | E4 E4 | E2 E2 E2 D2 | E8 || E4 D2 E2 | D2 F2 E2 F2 | (G2 F2) E4 | D8 || C4 E2 E2 | %9
w: With hearts *||cleansed from guilt of|sin,|Send we our|voi- ces peal- ing|to * the|skies;|Let a pure|
w: Ma- ker of|all, *|Fa- ther un- cre-|ate,|Of Him from|e- ver- last- ing|born, * the|Son,|And the blest|
w: Yet, none the|less, *|Per- son of the|Trine|God, in His|at- tri- butes dis-|tinct, * we|own;|Vain- ly would|
 E4 _D4 | _D2 F2 E2 E2 | E8 || A4 A2 A2 | F2 D2 E2 C2 | B,4 D4 | E6 || E2 | D4 E4 | D4 B,4 | %19
w: con- science|e- cho joy *|||powers in em- u-|la- tion|rise:|To|Fa- ther,|Son and|
w: Spi- rit|of co- e- qual|||ceed- ing, are of|sub- stance|One:|So|in this|Tri- ni-|
w: rea- son|grasp the things *|||bend a- dor- ing|at Gods|throne:|O|may the|Fa- ther,|
 F2 D2 G2 F2 | F4 || E4 | E2 G2 F2 F2 | E2 D2 E2 F2 | E4 D4 | B,8 |] %26
w: Ho- ly * *|praise,||Whom One Es- sence|joins, one an- them|here we|raise.|
w: ty the * *|three||per- fect Be- ing|are, one God, one|Ma- jes-|ty.|
w: Son * * *|be||help in time of|need, our joy e-|ter- nal-|ly.|
V:3
 G,4 A,2 A,2 | G,4 (G,2 A,2) | B,2 A,2 F,2 B,2 | B,8 || B,4 A,2 G,2 | F,2 B,2 B,2 B,2 | %6
w: * * re-|newed, and *|||||
w: |* the *|||||
w: |* each *|||||
 (G,=A, B,4) A,2 | B,8 || G,4 G,2 G,2 | B,4 B,4 | A,2 A,2 E2 _D2 | C8 || (F2 E2) !courtesy!=D2 C2 | %13
w: ||||||And * all our|
w: ||||||From * Both pro-|
w: ||||||Man * can but|
 F,2 B,2 E,2 A,2 | G,4 B,4 | B,6 || E,2 | F,4 E,4 | F,4 G,4 | F,2 B,2 B,2 =A,2 | B,4 || %21
w: |||||||praise,|
w: |||||||three|
w: |||||||be|
 (G,2 !courtesy!_A,2) | B,2 E2 C2 D2 | B,2 B,2 G,2 C2 | B,4 A,4 | G,8 |] %26
w: Three *|||||
w: One *|||||
w: Our *|||||
V:4
 E,4 A,,2 A,,2 | E,4 C,4 | G,,2 A,,2 B,,2 B,,2 | E,8 || E,4 B,,2 C,2 | D,2 D,2 E,2 D,2 | %6
w: ||||||
w: ||||||
w: ||||||
 (C,2 D,E,) F,4 | B,,8 || C,4 C,2 C,2 | B,,4 E,4 | F,2 F,2 G,2 G,2 | (A,4 G,4) || F,4 F,2 E,2 | %13
w: ||||* * * with-|in, *||
w: |||||state *||
w: ||||* * * di-|vine, *||
 D,2 B,,2 C,2 A,,2 | B,,4 B,,4 | (E,4 D,2) || C,2 | B,,4 C,4 | B,,4 E,4 | D,2 G,2 E,2 F,2 | B,,4 || %21
w: ||||||||
w: ||||||||
w: ||||||||
 C,4 | G,2 E,2 F,2 B,,2 | E,2 G,,2 C,2 A,,2 | B,,4 B,,4 | E,8 |] %26
w: |||||
w: |||||
w: |||||

